icons/linear-new-tool-edit-gear-setting-1.svg

<svg xmlns="http://www.w3.org/2000/svg" width="32px" height="32px" viewBox="0 0 32 32" version="1.1">
    <title>linear-new-tool-edit-gear-setting-1</title>
    <g id="linear-new-tool-edit-gear-setting-1" stroke-width="1" fill-rule="evenodd">
        <path d="M20.4018487,2.37553065 L25.5980762,5.37564435 C26.0421758,5.63204538 26.215211,6.17765156 26.0166196,6.63723035 L25.9641482,6.74158909 L25.12,8.20166975 L25.1406555,8.22477808 C25.9879591,9.21992772 26.668253,10.3466881 27.1521933,11.5616944 L27.316,11.9996698 L29,11.9999126 C29.5522284,12.0001365 30,12.4478284 30,13.0000569 L30,18.9999431 C30,19.512779 29.6140611,19.9354503 29.1167229,19.9932154 L29,19.9998413 L27.316,19.9996698 L27.3061941,20.0300947 C26.8173676,21.4012959 26.082104,22.6695001 25.1406555,23.7752219 L25.12,23.7966698 L25.9641482,25.2584109 C26.2205078,25.7025344 26.0975055,26.2615493 25.6957032,26.5602232 L25.5980762,26.6243557 L20.4019238,29.6243557 C19.9577704,29.880853 19.3987083,29.7578716 19.100013,29.3560465 L19.0358679,29.2582775 L18.193,27.7986698 L18.1144018,27.814151 C17.5599376,27.912775 16.9967147,27.972544 16.4277515,27.9925066 L16,28 C15.2854441,28 14.5786784,27.937431 13.8855982,27.814151 L13.806,27.7986698 L12.9641016,29.2583303 C12.7077598,29.702503 12.1621175,29.8755623 11.7025152,29.6769472 L11.5981287,29.6244475 L6.40192379,26.6243557 C5.95782417,26.3679546 5.78478903,25.8223484 5.98338036,25.3627696 L6.03585182,25.2584109 L6.879,23.7966698 L6.85934451,23.7752219 C5.91789601,22.6695001 5.1826324,21.4012959 4.69380593,20.0300947 L4.683,19.9996698 L3,19.9998412 C2.48716417,19.9999881 2.06445351,19.6139977 2.00663773,19.1166654 L2,18.9999431 L2,13.0000569 C2,12.4478285 2.44777161,12.0001366 3,11.9999126 L4.683,11.9996698 L4.69380593,11.9699053 C5.13374976,10.7358242 5.77330766,9.58517072 6.58313576,8.56130961 L6.879,8.20166975 L6.03585182,6.74158909 C5.77949215,6.2974656 5.90249448,5.73845066 6.30429683,5.43977684 L6.40192379,5.37564435 L11.598129,2.37561388 C12.0422296,2.11914697 12.6012917,2.24212842 12.899987,2.64395355 L12.9641321,2.74172252 L13.807,4.20066975 L13.8855982,4.185849 C14.4400624,4.08722502 15.0032853,4.02745605 15.5722485,4.00749342 L16,4 C16.7145559,4 17.4213216,4.06256902 18.1144018,4.185849 L18.192,4.20066975 L19.0358679,2.74172252 C19.3119588,2.26332984 19.9235393,2.09941742 20.4018487,2.37553065 Z M23.732,6.60766975 L20.267,4.60766975 L19.183303,6.48674379 L18.4507201,6.30224913 C17.6564305,6.10221414 16.8353606,6 16,6 C15.1646394,6 14.3435695,6.10221414 13.5492799,6.30224913 L12.816697,6.48674379 L11.732,4.60766975 L8.267,6.60766975 L9.35422037,8.48976308 L8.82744077,9.0318914 C7.6732368,10.2197253 6.82804176,11.6751151 6.37635232,13.2720351 L6.17049816,13.9998197 L4,13.9996698 L4,17.9996698 L6.17049816,18.0001803 L6.37635232,18.7279649 C6.82804176,20.3248849 7.6732368,21.7802747 8.82744077,22.9681086 L9.35422037,23.5102369 L8.267,25.3916698 L11.732,27.3916698 L12.816697,25.5132562 L13.5492799,25.6977509 C14.3435695,25.8977859 15.1646394,26 16,26 C16.8353606,26 17.6564305,25.8977859 18.4507201,25.6977509 L19.183303,25.5132562 L20.267,27.3916698 L23.732,25.3916698 L22.6457796,23.5102369 L23.1725592,22.9681086 C24.3267632,21.7802747 25.1719582,20.3248849 25.6236477,18.7279649 L25.8295018,18.0001803 L28,17.9996698 L28,13.9996698 L25.8295018,13.9998197 L25.6236477,13.2720351 C25.1719582,11.6751151 24.3267632,10.2197253 23.1725592,9.0318914 L22.6457796,8.48976308 L23.732,6.60766975 Z M16,9 C19.8659932,9 23,12.1340068 23,16 C23,19.8659932 19.8659932,23 16,23 C12.1340068,23 9,19.8659932 9,16 C9,12.1340068 12.1340068,9 16,9 Z M16,11 C13.2385763,11 11,13.2385763 11,16 C11,18.7614237 13.2385763,21 16,21 C18.7614237,21 21,18.7614237 21,16 C21,13.2385763 18.7614237,11 16,11 Z" id="&#24418;&#29366;" fill-rule="nonzero" />
    </g>
</svg>

<svg xmlns="http://www.w3.org/2000/svg" viewBox="0 0 32 32"><path fill="currentColor" d="m20.402 2.376 5.196 3a1 1 0 0 1 .419 1.261l-.053.105-.844 1.46.02.023a11.995 11.995 0 0 1 2.012 3.337l.164.438H29a1 1 0 0 1 1 1v6a1 1 0 0 1-.883.993L29 20h-1.684l-.01.03a11.988 11.988 0 0 1-2.165 3.745l-.021.022.844 1.461a1 1 0 0 1-.268 1.302l-.098.064-5.196 3a1 1 0 0 1-1.302-.268l-.064-.098-.843-1.46-.079.016c-.554.099-1.117.159-1.686.179L16 28c-.715 0-1.421-.063-2.114-.186l-.08-.015-.842 1.46a1 1 0 0 1-1.261.418l-.105-.053-5.196-3a1 1 0 0 1-.419-1.261l.053-.105.843-1.461-.02-.022a11.988 11.988 0 0 1-2.165-3.745L4.683 20H3a1 1 0 0 1-.993-.883L2 19v-6a1 1 0 0 1 1-1h1.683l.01-.03a11.98 11.98 0 0 1 1.89-3.409l.296-.36-.843-1.46a1 1 0 0 1 .268-1.301l.098-.064 5.196-3a1 1 0 0 1 1.302.268l.064.098.843 1.459.079-.015a12.038 12.038 0 0 1 1.686-.179L16 4c.715 0 1.421.063 2.114.186l.078.015.844-1.46a1 1 0 0 1 1.366-.365m3.33 4.232-3.465-2-1.084 1.879-.732-.185C17.656 6.102 16.835 6 16 6s-1.656.102-2.45.302l-.733.185-1.085-1.88-3.465 2L9.354 8.49l-.527.542a9.988 9.988 0 0 0-2.45 4.24L6.17 14H4v4h2.17l.206.728a9.988 9.988 0 0 0 2.451 4.24l.527.542-1.087 1.882 3.465 2 1.085-1.879.732.185c.795.2 1.616.302 2.451.302s1.656-.102 2.45-.302l.733-.185 1.084 1.879 3.465-2-1.086-1.882.527-.542a9.988 9.988 0 0 0 2.45-4.24L25.83 18H28v-4h-2.17l-.206-.728a9.988 9.988 0 0 0-2.451-4.24l-.527-.542zM16 9a7 7 0 1 1 0 14 7 7 0 0 1 0-14m0 2a5 5 0 1 0 0 10 5 5 0 0 0 0-10"/></svg>
